X: 31754
T: Path You Can't See, The
R: waltz
M: 3/4
K: Bminor
|:F2|B3d BF|D3F EF|GF EF GB|F4 F2|
B3d BF|D3F EF|GF EF G[c^A]|B4:|
|:F2|B2 FB dB|g3f ed|cE Ac ec|f3e dc|
B2 FB dB|g3f ed|ce F2 ^A2|B4:|

